_assets/images/products/analytics.svg

<svg enable-background="new 0 0 512 512" viewBox="0 0 512 512" xmlns="http://www.w3.org/2000/svg"><g transform="translate(1 1)"><path d="m502.467 489.722h-494.934c-5.12 0-8.533-3.413-8.533-8.533s3.413-8.533 8.533-8.533h494.933c5.12 0 8.533 3.413 8.533 8.533.001 5.119-3.412 8.533-8.532 8.533z" fill="#0096e6"/><path d="m24.6 361.722h85.333v119.466h-85.333z" fill="#fff"/><path d="m118.467 489.722h-102.4v-136.534h102.4zm-85.334-17.067h68.267v-102.4h-68.267z" fill="#0096e6"/><path d="m152.6 284.922h85.333v196.266h-85.333z" fill="#fff"/><path d="m246.467 489.722h-102.4v-213.334h102.4zm-85.334-17.067h68.267v-179.2h-68.267z" fill="#0096e6"/><path d="m280.6 216.655h85.333v264.533h-85.333z" fill="#fff"/><path d="m374.467 489.722h-102.4v-281.6h102.4zm-85.334-17.067h68.267v-247.467h-68.267z" fill="#0096e6"/><path d="m408.6 148.388h85.333v332.8h-85.333z" fill="#d0e8f9"/><g fill="#0096e6"><path d="m502.467 489.722h-102.4v-349.867h102.4zm-85.334-17.067h68.267v-315.733h-68.267z"/><path d="m67.267 236.282c-2.56 0-5.973-1.707-7.68-4.267-2.56-4.267-.853-9.387 3.413-11.947l309.76-178.346-46.933-4.267c-4.267-.853-8.533-4.267-7.68-9.387.853-4.267 4.267-8.533 9.387-7.68l72.533 6.827h1.707s1.707.853 2.56.853l.853.853 1.707 1.707c0 .853.853 1.707.853 2.56s0 .853 0 1.707v2.56s0 .853-.853 1.707l-30.72 66.56c-1.707 4.267-6.827 5.973-11.093 4.267-4.267-1.707-5.973-6.827-4.267-11.093l19.627-42.667-308.907 179.2c-.854.853-2.561.853-4.267.853z"/></g></g></svg>

<?xml version="1.0" encoding="iso-8859-1"?>
<!-- Generator: Adobe Illustrator 19.0.0, SVG Export Plug-In . SVG Version: 6.00 Build 0)  -->
<svg version="1.1" id="Layer_1" xmlns="http://www.w3.org/2000/svg" xmlns:xlink="http://www.w3.org/1999/xlink" x="0px" y="0px"
	 viewBox="0 0 512 512" style="enable-background:new 0 0 512 512;" xml:space="preserve">
<g transform="translate(1 1)">
	<path style="fill:#0096E6;" d="M502.467,489.722H7.533c-5.12,0-8.533-3.413-8.533-8.533c0-5.12,3.413-8.533,8.533-8.533h494.933
		c5.12,0,8.533,3.413,8.533,8.533C511,486.308,507.587,489.722,502.467,489.722z"/>
	<polygon style="fill:#FFFFFF;" points="24.6,361.722 109.933,361.722 109.933,481.188 24.6,481.188 	"/>
	<path style="fill:#0096E6;" d="M118.467,489.722h-102.4V353.188h102.4V489.722z M33.133,472.655H101.4v-102.4H33.133V472.655z"/>
	<polygon style="fill:#FFFFFF;" points="152.6,284.922 237.933,284.922 237.933,481.188 152.6,481.188 	"/>
	<path style="fill:#0096E6;" d="M246.467,489.722h-102.4V276.388h102.4V489.722z M161.133,472.655H229.4v-179.2h-68.267V472.655z"/>
	<polygon style="fill:#FFFFFF;" points="280.6,216.655 365.933,216.655 365.933,481.188 280.6,481.188 	"/>
	<path style="fill:#0096E6;" d="M374.467,489.722h-102.4v-281.6h102.4V489.722z M289.133,472.655H357.4V225.188h-68.267V472.655z"/>
	<polygon style="fill:#D0E8F9;" points="408.6,148.388 493.933,148.388 493.933,481.188 408.6,481.188 	"/>
	<g>
		<path style="fill:#0096E6;" d="M502.467,489.722h-102.4V139.855h102.4V489.722z M417.133,472.655H485.4V156.922h-68.267V472.655z"
			/>
		<path style="fill:#0096E6;" d="M67.267,236.282c-2.56,0-5.973-1.707-7.68-4.267c-2.56-4.267-0.853-9.387,3.413-11.947
			L372.76,41.722l-46.933-4.267c-4.267-0.853-8.533-4.267-7.68-9.387c0.853-4.267,4.267-8.533,9.387-7.68l72.533,6.827
			c0.853,0,0.853,0,1.707,0s1.707,0.853,2.56,0.853l0.853,0.853c0.853,0.853,0.853,0.853,1.707,1.707
			c0,0.853,0.853,1.707,0.853,2.56s0,0.853,0,1.707c0,0.853,0,1.707,0,2.56s0,0.853-0.853,1.707l-30.72,66.56
			c-1.707,4.267-6.827,5.973-11.093,4.267c-4.267-1.707-5.973-6.827-4.267-11.093l19.627-42.667l-308.907,179.2
			C70.68,236.282,68.973,236.282,67.267,236.282z"/>
	</g>
</g>
<g>
</g>
<g>
</g>
<g>
</g>
<g>
</g>
<g>
</g>
<g>
</g>
<g>
</g>
<g>
</g>
<g>
</g>
<g>
</g>
<g>
</g>
<g>
</g>
<g>
</g>
<g>
</g>
<g>
</g>
</svg>
